!!!COM: Palestrina, Giovanni Perluigi da
!!!OPR: Missa In semidupl. maj. (II)
!!!OMD: Sanctus
!!!OTL: Pleni
**kern	**kern	**kern	**kern
*Ibass	*Itenor	*Icalto	*Icant
!Bassus	!Tenor	!Altus	!Cantus
*clefF4	*clefGv2	*clefG2	*clefG2
*k[b-]	*k[b-]	*k[b-]	*k[b-]
*F:ion	*F:ion	*F:ion	*F:ion
*M4/2	*M4/2	*M4/2	*M4/2
=43	=43	=43	=43
1r	0r	1B-	0r
1BB-	.	1d	.
=44	=44	=44	=44
1D	0r	2.f	0r
.	.	4e-	.
2.F	.	2d	.
.	.	2c	.
4E-	.	.	.
=45	=45	=45	=45
2D	0r	2f	0r
2C	.	2.g	.
1F	.	.	.
.	.	4f	.
.	.	[2f	.
=46	=46	=46	=46
1G	0r	2f]	1r
.	.	2e-	.
1F	.	2d	1f
.	.	[2c	.
=47	=47	=47	=47
0r	1F	4c]	1a
.	.	4B-	.
.	.	4A	.
.	.	4G	.
.	1A	2F	2.cc
.	.	[2f	.
.	.	.	4b-
=48	=48	=48	=48
0r	2.c	2f]	2a
.	.	4e	2g
.	4B-	4d	.
.	2A	2c	2cc
.	2G	2B-	[2dd
=49	=49	=49	=49
0r	1c	1A	4dd]
.	.	.	4cc
.	.	.	1cc
.	1d	1G	.
.	.	.	2b
=50	=50	=50	=50
2r	1c	2r	0cc
1F	.	1A	.
.	1c	.	.
4E	.	4G	.
4D	.	4F	.
=51	=51	=51	=51
2E	1c	2G	0r
2F	.	2A	.
1BB-	1d	2F	.
.	.	[2f	.
=52	=52	=52	=52
1C	2c	2f]	0g
.	1c	4e	.
.	.	4d	.
1r	.	2e	.
.	4B	4d	.
.	4A	4c	.
=53	=53	=53	=53
0r	2B	2d	1g
.	2c	2e	.
.	4F	2c	1a
.	4G	.	.
.	4A	[2f	.
.	4B	.	.
=54	=54	=54	=54
1C	2.c	2f]	0g
.	.	4e	.
.	8B-	4d	.
.	8A	.	.
1C	2G	1e	.
.	[2c	.	.
=55	=55	=55	=55
1D	2c]	2r	1r
.	2B	1f	.
1C	1c	.	2r
.	.	2e-	[2cc
=56	=56	=56	=56
0r	1G	1.d	2cc]
.	.	.	2b-
.	1r	.	2.a
.	.	4c	.
.	.	4B-	4g
=57	=57	=57	=57
0r	0r	1c	2a
.	.	.	2.g
.	.	2B-	.
.	.	.	4f
.	.	2A	[2f
=58	=58	=58	=58
1r	1r	1G	2f]
.	.	.	2e
1F	2r	4F	1f
.	.	4G	.
.	[2c	4A	.
.	.	4F	.
=59	=59	=59	=59
2E-	2c]	2G	0r
2.D	2B-	2F	.
.	2.A	2r	.
4C	.	.	.
4D	.	[2f	.
4BB-	4G	.	.
=60	=60	=60	=60
1C	2A	2f]	1r
.	2.G	2e-	.
2BB-	.	2d	2r
.	4F	.	.
2AA	[2F	2c	[2cc
=61	=61	=61	=61
1GG	4F]	1g	2cc]
.	8E	.	.
.	8D	.	.
.	2E	.	2b-
[1FF	1F	2r	2.a
.	.	[2c	.
.	.	.	4g
=62	=62	=62	=62
2FF]	1r	2c]	2a
2GG	.	2B-	2.g
2AA	2r	2.A	.
.	.	.	4f
2FF	[2c	.	[2f
.	.	4G	.
=63	=63	=63	=63
0r	2c]	2A	2f]
.	2B-	2.G	2e
.	2.A	.	2.f
.	.	4F	.
.	.	[2F	.
.	4G	.	8e
.	.	.	8d
=64	=64	=64	=64
2r	2A	2F]	4c
.	.	.	4d
2C	2.G	2E	4e
.	.	.	4c
2BB-	.	1F	2d
.	4F	.	.
2AA	[2F	.	2c
=65	=65	=65	=65
1GG	2F]	2r	1g
.	2E	1B-	.
2FF	1F	.	[1c
[2F	.	2A	.
=66	=66	=66	=66
2F]	2r	2G	1c]
2E-	1c	2G	.
2.D	.	2F	1r
.	2B-	[2f	.
4C	.	.	.
=67	=67	=67	=67
2D	2.A	2f]	0r
1C	.	2e-	.
.	4G	.	.
.	2A	2c	.
2BB-	[2G	2d	.
=68	=68	=68	=68
2.AA	4G]	1c	2r
.	4F	.	.
.	2.F	.	1cc
8GG	.	.	.
8FF	.	.	.
1GG	.	1r	.
.	8E	.	.
.	8D	.	.
.	2E	.	2b-
=69	=69	=69	=69
2FF	1F	2r	2.a
1F	.	1f	.
.	.	.	4g
.	1c	.	2a
2C	.	2e-	[2g
=70	=70	=70	=70
1D	2B-	2.d	4g]
.	.	.	4f
.	2A	.	1f
.	.	4c	.
2BB-	1G	2d	.
2C	.	[2c	2e
=71	=71	=71	=71
2.D	2F	4c]	[0f
.	.	4B-	.
.	1d	1B-	.
4E	.	.	.
1F	.	.	.
.	2c	2A	.
=72	=72	=72	=72
0BB-	1d	2.B-	0f]
.	.	4c	.
.	1B-	1d	.
=73	=73	=73	=73
[0F	[0A	[0c	[0f
=74	=74	=74	=74
0F]	0A]	0c]	0f]
*-	*-	*-	*-
!!!CDT: 1525/^1526/-1594/2/2
!!!OCY: Italia
!!!AGN: Mass (Paraphrase)
!!!AST: renaissance, vocal
!!!ASW: Gregorian Mass
!!!PWK: Masses, Book Mantuan II
!!!RNB: Cadence finals: C
!!!YOR: Le Opere Complete, v. 19, p. 87
!!!YOO: Rome, Italy: Fratelli Scalera
!!!END: 1992//
!!!EED: John Miller
!!!YEC: Copyright 2000, John Miller
!!!YEN: United States of America
!!!YEM: Rights to all derivative electronic formats reserved.
!!!YEM: Refer to licensing agreement for further details.
!!!YEM: This file must be accompanied by the licensing agreement.
!!!YEM: A copy of the licensing agreement may be found at http://www.music-cog.ohio-state.edu/HumdrumDatabases/Palestrina/license.txt
!!!EMD: converted to Humdrum by Bret Aarden
